; generated by Slic3r 1.3.0 on 2019-03-16 at 22:21:28

; external perimeters extrusion width = 0.44mm (0.84mm^3/s)
; perimeters extrusion width = 0.56mm (2.15mm^3/s)
; infill extrusion width = 0.50mm (3.83mm^3/s)
; solid infill extrusion width = 0.56mm (1.08mm^3/s)
; top infill extrusion width = 0.56mm (0.81mm^3/s)

M107
M104 S220 ; Set Extruder temperature
M140 S100  ; Set Heat Bed temperature
M190 S100  ; Wait for Heat Bed temperature
M109 S220 ; Wait for Extruder temperature
G28 ; Home all axes
G92 E0 ; Reset Extruder
G1 Z5.0 F3000 ; Move Z Axis up little to prevent scratching of Heat Bed
G1 X0.1 Y20 Z0.3 F5000.0 ; Move to start position
G1 X0.1 Y200.0 Z0.3 F1500.0 E15 ; Draw the first line
G1 X0.4 Y200.0 Z0.3 F5000.0 ; Move to side a little
G1 X0.4 Y20 Z0.3 F1500.0 E30 ; Draw the second line
G92 E0 ; Reset Extruder
G1 Z5.0 F3000 ; Move Z Axis up little to prevent scratching of Heat Bed
; Filament gcode

G21 ; set units to millimeters
G90 ; use absolute coordinates
M82 ; use absolute distances for extrusion
G92 E0
G1 E-8.00000 F2400.00000
G92 E0
G1 Z1.000 F7800.000
G1 X35.034 Y25.711 F7800.000
G1 Z0.300 F7800.000
G1 E8.00000 F2400.00000
G1 F1800
G1 X35.664 Y24.902 E8.06853
G1 X36.523 Y23.940 E8.15469
G1 X37.372 Y23.113 E8.23383
G1 X38.311 Y22.316 E8.31614
G1 X39.372 Y21.542 E8.40387
G1 X40.396 Y20.901 E8.48459
G1 X41.549 Y20.291 E8.57173
G1 X42.731 Y19.773 E8.65793
G1 X43.792 Y19.392 E8.73320
G1 X45.090 Y19.028 E8.82331
G1 X46.350 Y18.775 E8.90912
G1 X47.634 Y18.614 E8.99557
G1 X48.856 Y18.550 E9.07733
G1 X50.117 Y18.572 E9.16163
G1 X51.144 Y18.657 E9.23046
G1 X51.770 Y18.740 E9.27266
G1 X52.477 Y18.860 E9.32053
G1 X53.227 Y19.021 E9.37179
G1 X215.989 Y57.463 E20.54436
G1 X217.097 Y57.775 E20.62124
G1 X218.302 Y58.207 E20.70676
G1 X219.252 Y58.620 E20.77594
G1 X220.359 Y59.189 E20.85910
G1 X221.382 Y59.808 E20.93896
G1 X222.319 Y60.465 E21.01544
G1 X223.180 Y61.155 E21.08914
G1 X224.103 Y62.002 E21.17283
G1 X224.748 Y62.673 E21.23500
G1 X225.301 Y63.310 E21.29139
G1 X225.888 Y64.060 E21.35496
G1 X226.273 Y64.602 E21.39940
G1 X226.752 Y65.343 E21.45833
G1 X227.174 Y66.072 E21.51458
G1 X227.576 Y66.852 E21.57323
G1 X227.935 Y67.646 E21.63147
G1 X228.243 Y68.422 E21.68721
G1 X228.486 Y69.126 E21.73696
G1 X228.762 Y70.078 E21.80317
G1 X228.939 Y70.826 E21.85456
G1 X229.113 Y71.768 E21.91852
G1 X229.229 Y72.649 E21.97788
G1 X229.302 Y73.582 E22.04043
G1 X229.326 Y74.488 E22.10097
G1 X229.315 Y199.539 E30.45506
G1 X229.264 Y200.393 E30.51220
G1 X229.185 Y201.134 E30.56200
G1 X229.058 Y201.969 E30.61843
G1 X228.875 Y202.870 E30.67984
G1 X228.657 Y203.714 E30.73805
G1 X228.457 Y204.367 E30.78370
G1 X228.145 Y205.243 E30.84582
G1 X227.855 Y205.947 E30.89669
G1 X227.513 Y206.683 E30.95087
G1 X227.184 Y207.316 E30.99859
G1 X226.825 Y207.944 E31.04688
G1 X226.287 Y208.785 E31.11361
G1 X225.936 Y209.282 E31.15423
G1 X225.376 Y210.006 E31.21538
G1 X224.778 Y210.700 E31.27661
G1 X224.263 Y211.244 E31.32662
G1 X223.700 Y211.789 E31.37899
G1 X223.118 Y212.304 E31.43088
G1 X222.325 Y212.937 E31.49867
G1 X221.647 Y213.421 E31.55431
G1 X220.983 Y213.851 E31.60720
G1 X220.168 Y214.323 E31.67006
G1 X219.381 Y214.726 E31.72914
G1 X218.625 Y215.067 E31.78453
G1 X217.709 Y215.425 E31.85027
G1 X217.069 Y215.640 E31.89538
G1 X216.286 Y215.869 E31.94988
G1 X215.312 Y216.096 E32.01671
G1 X214.655 Y216.218 E32.06134
G1 X213.767 Y216.342 E32.12124
G1 X212.720 Y216.430 E32.19141
G1 X211.879 Y216.453 E32.24764
G1 X64.240 Y216.447 E42.11069
G1 X63.188 Y216.388 E42.18107
G1 X62.554 Y216.321 E42.22365
G1 X61.804 Y216.213 E42.27433
G1 X61.029 Y216.065 E42.32700
G1 X60.294 Y215.890 E42.37747
G1 X59.385 Y215.627 E42.44071
G1 X58.555 Y215.340 E42.49935
G1 X57.784 Y215.031 E42.55489
G1 X57.046 Y214.694 E42.60905
G1 X56.281 Y214.299 E42.66655
G1 X55.710 Y213.971 E42.71055
G1 X54.863 Y213.432 E42.77762
G1 X54.195 Y212.956 E42.83247
G1 X53.549 Y212.449 E42.88730
G1 X53.078 Y212.046 E42.92869
G1 X52.366 Y211.380 E42.99385
G1 X51.709 Y210.691 E43.05740
G1 X51.091 Y209.972 E43.12076
G1 X50.538 Y209.254 E43.18131
G1 X49.957 Y208.406 E43.25001
G1 X49.446 Y207.560 E43.31599
G1 X49.085 Y206.888 E43.36695
G1 X48.648 Y205.970 E43.43490
G1 X48.331 Y205.199 E43.49061
G1 X6.838 Y98.043 E51.16711
G1 X6.407 Y96.778 E51.25640
G1 X6.113 Y95.659 E51.33371
G1 X5.887 Y94.490 E51.41321
G1 X5.743 Y93.303 E51.49311
G1 X5.677 Y92.058 E51.57639
G1 X5.684 Y91.168 E51.63589
G1 X5.741 Y90.234 E51.69835
G1 X5.889 Y89.024 E51.77984
G1 X6.114 Y87.860 E51.85902
G1 X6.362 Y86.901 E51.92520
G1 X6.707 Y85.833 E52.00017
G1 X7.066 Y84.918 E52.06585
G1 X33.319 Y28.591 E56.21743
G1 X33.711 Y27.811 E56.27575
G1 X34.173 Y27.001 E56.33803
G1 X34.519 Y26.453 E56.38130
G1 X34.999 Y25.760 E56.43766
G1 F6240
G1 X35.137 Y25.573 E56.35270
G1 F6240
G1 X35.137 Y25.572 E56.35248
G1 F6240
G1 X35.139 Y25.569 E56.35110
G1 F6240
G1 X35.289 Y25.372 E56.26048
G1 F6240
G1 X35.395 Y25.236 E56.19763
G1 F6240
G1 X35.396 Y25.235 E56.19737
G1 F6240
G1 X35.398 Y25.232 E56.19599
G1 F6240
G1 X35.553 Y25.038 E56.10494
G1 F6240
G1 X35.664 Y24.902 E56.04088
G1 F6240
G1 X35.902 Y24.621 E55.90639
G1 F6240
G1 X36.076 Y24.423 E55.81001
G1 F6240
G1 X36.341 Y24.132 E55.66628
G1 F6240
G1 X36.523 Y23.940 E55.56952
G1 F6240
G1 X36.756 Y23.701 E55.44777
G1 F6240
G1 X36.881 Y23.577 E55.38343
G1 F6240
G1 X37.062 Y23.402 E55.29137
G1 F6240
G1 X37.189 Y23.282 E55.22750
G1 F6240
G1 X37.372 Y23.113 E55.13658
G1 F6240
G1 X37.503 Y22.995 E55.07212
G1 F6240
G1 X37.693 Y22.827 E54.97934
G1 F6240
G1 X37.696 Y22.825 E54.97797
G1 F6240
G1 X37.697 Y22.824 E54.97765
G1 F6240
G1 X37.827 Y22.712 E54.91496
G1 F6240
G1 X38.105 Y22.482 E54.78314
G1 F6240
G1 X38.109 Y22.478 E54.78108
G1 F6240
G1 X38.110 Y22.478 E54.78072
G1 F6240
G1 X38.311 Y22.316 E54.68634
G1 F6240
G1 X38.622 Y22.077 E54.54290
G1 F6240
G1 X38.627 Y22.073 E54.54084
G1 F6240
G1 X38.627 Y22.073 E54.54068
G1 F6240
G1 X38.835 Y21.919 E54.44630
G1 F6240
G1 X39.154 Y21.691 E54.30295
G1 F6240
G1 X39.372 Y21.542 E54.20638
G1 F6240
G1 X39.675 Y21.342 E54.07385
G1 F6240
G1 X39.678 Y21.340 E54.07247
G1 F6240
G1 X39.679 Y21.339 E54.07182
G1 F6240
G1 X39.825 Y21.246 E54.00869
G1 F6240
G1 X40.019 Y21.126 E53.92549
G1 F6240
G1 X40.022 Y21.124 E53.92411
G1 F6240
G1 X40.024 Y21.123 E53.92310
G1 F6240
G1 X40.171 Y21.034 E53.86039
G1 F6240
G1 X40.396 Y20.901 E53.76484
G1 F6240
G1 X40.400 Y20.899 E53.76347
G1 F6240
G1 X40.401 Y20.899 E53.76298
G1 F6240
G1 X40.550 Y20.814 E53.70038
G1 F6240
G1 X40.846 Y20.651 E53.57692
G1 F6240
G1 X41.080 Y20.527 E53.48015
G1 F6240
G1 X41.390 Y20.368 E53.35270
G1 F6240
G1 X41.394 Y20.367 E53.35132
G1 F6240
G1 X41.395 Y20.366 E53.35097
G1 F6240
G1 X41.549 Y20.291 E53.28811
G1 F6240
G1 X41.786 Y20.179 E53.19254
G1 F6240
G1 X41.789 Y20.177 E53.19116
G1 F6240
G1 X41.789 Y20.177 E53.19105
G1 F6240
G1 X41.946 Y20.106 E53.12813
G1 F6240
G1 X42.164 Y20.009 E53.04089
G1 F6240
G1 X42.325 Y19.939 E52.97684
G1 F6240
G1 X42.568 Y19.839 E52.88091
G1 F6240
G1 X42.571 Y19.837 E52.87954
G1 F6240
G1 X42.572 Y19.837 E52.87937
G1 F6240
G1 X42.731 Y19.773 E52.81656
G1 F6240
G1 X43.030 Y19.658 E52.69959
G1 F6240
G1 X43.035 Y19.656 E52.69752
G1 F6240
G1 X43.038 Y19.655 E52.69650
G1 F6240
G1 X43.281 Y19.566 E52.60207
G1 F6240
G1 X43.625 Y19.447 E52.46900
G1 F6240
G1 X43.792 Y19.392 E52.40479
G1 F6240
G1 X44.038 Y19.315 E52.31054
G1 F6240
G1 X44.041 Y19.314 E52.30916
G1 F6240
G1 X44.042 Y19.314 E52.30880
G1 F6240
G1 X44.208 Y19.264 E52.24570
G1 F6240
G1 X44.511 Y19.178 E52.13033
G1 F6240
G1 X44.766 Y19.109 E52.03387
G1 F6240
G1 X45.090 Y19.028 E51.91185
G1 F6240
G1 X45.094 Y19.027 E51.91047
G1 F6240
G1 X45.096 Y19.027 E51.90957
G1 F6240
G1 X45.264 Y18.988 E51.84677
G1 F6240
G1 X45.600 Y18.915 E51.72117
G1 F6240
G1 X45.605 Y18.914 E51.71910
G1 F6240
G1 X45.606 Y18.913 E51.71862
G1 F6240
G1 X45.860 Y18.863 E51.62418
G1 F6240
G1 X46.176 Y18.805 E51.50690
G1 F6240
G1 X46.350 Y18.775 E51.44243
G1 F6240
G1 X46.626 Y18.732 E51.34032
G1 F6240
G1 X46.799 Y18.708 E51.27648
G1 F6240
G1 X47.045 Y18.676 E51.18581
G1 F6240
G1 X47.220 Y18.656 E51.12143
G1 F6240
G1 X47.454 Y18.631 E51.03540
G1 F6240
G1 X47.458 Y18.631 E51.03401
G1 F6240
G1 X47.461 Y18.630 E51.03272
G1 F6240
G1 X47.634 Y18.614 E50.96951
G1 F6240
G1 X47.916 Y18.591 E50.86588
G1 F6240
G1 X47.920 Y18.591 E50.86451
G1 F6240
G1 X47.922 Y18.591 E50.86365
G1 F6240
G1 X48.094 Y18.579 E50.80094
G1 F6240
G1 X48.387 Y18.564 E50.69347
G1 F6240
G1 X48.391 Y18.564 E50.69209
G1 F6240
G1 X48.392 Y18.564 E50.69162
G1 F6240
G1 X48.565 Y18.557 E50.62865
G1 F6240
G1 X48.856 Y18.550 E50.52224
G1 F6240
G1 X48.861 Y18.550 E50.52018
G1 F6240
G1 X48.862 Y18.550 E50.52002
G1 F6240
G1 X49.119 Y18.547 E50.42598
G1 F6240
G1 X49.464 Y18.549 E50.29986
G1 F6240
G1 X49.468 Y18.549 E50.29848
G1 F6240
G1 X49.472 Y18.549 E50.29694
G1 F6240
G1 X49.646 Y18.553 E50.23363
G1 F6240
G1 X49.941 Y18.563 E50.12555
G1 F6240
G1 X49.945 Y18.563 E50.12418
G1 F6240
G1 X49.946 Y18.563 E50.12370
G1 F6240
G1 X50.117 Y18.572 E50.06105
G1 F6240
G1 X50.404 Y18.590 E49.95632
G1 F6240
G1 X50.409 Y18.591 E49.95425
G1 F6240
G1 X50.410 Y18.591 E49.95389
G1 F6240
G1 X50.668 Y18.611 E49.85922
G1 F6240
G1 X50.968 Y18.638 E49.74926
G1 F6240
G1 X50.972 Y18.639 E49.74789
G1 F6240
G1 X50.974 Y18.639 E49.74713
G1 F6240
G1 X51.144 Y18.657 E49.68457
G1 F6240
G1 X51.509 Y18.703 E49.55010
G1 F6240
G1 X51.515 Y18.703 E49.54803
G1 F6240
G1 X51.515 Y18.704 E49.54800
G1 F6240
G1 X51.770 Y18.740 E49.45374
G1 F6240
G1 X52.036 Y18.781 E49.35562
G1 F6240
G1 X52.123 Y18.796 E49.32339
G1 F6240
G1 X52.304 Y18.828 E49.25619
G1 F6240
G1 X52.477 Y18.860 E49.19189
G1 F6240
G1 X52.806 Y18.927 E49.06936
G1 F6240
G1 X52.811 Y18.928 E49.06729
G1 F6240
G1 X52.812 Y18.928 E49.06689
G1 F6240
G1 X53.065 Y18.983 E48.97244
G1 F6240
G1 X53.227 Y19.021 E48.91153
G1 F6240
G1 X53.424 Y19.067 E48.83766
G1 E48.43766 F2400.00000
G92 E0
G1 Z1.300 F7800.000
G1 X49.042 Y121.189 F7800.000
G1 Z0.300 F7800.000
G1 E8.00000 F2400.00000
G1 F1800
G1 X48.951 Y121.046 E8.01178
G1 X16.536 Y105.931 E10.49006
G1 X15.488 Y105.389 E10.57179
G1 X14.793 Y104.971 E10.62801
G1 X14.300 Y104.644 E10.66894
G1 X13.468 Y104.027 E10.74074
G1 X12.762 Y103.431 E10.80477
G1 X12.034 Y102.736 E10.87453
G1 X11.534 Y102.202 E10.92522
G1 X11.045 Y101.629 E10.97738
G1 X10.458 Y100.857 E11.04462
G1 X10.006 Y100.186 E11.10067
G1 X9.582 Y99.483 E11.15755
G1 X9.134 Y98.632 E11.22415
G1 X8.830 Y97.970 E11.27466
G1 X8.529 Y97.218 E11.33076
G1 X8.224 Y96.316 E11.39678
G1 X8.007 Y95.532 E11.45312
G1 X7.798 Y94.556 E11.52227
G1 X7.665 Y93.666 E11.58467
G1 X7.574 Y92.669 E11.65398
G1 X7.548 Y91.812 E11.71344
G1 X7.569 Y90.953 E11.77296
G1 X7.639 Y90.077 E11.83388
G1 X7.773 Y89.119 E11.90090
G1 X7.964 Y88.174 E11.96767
G1 X8.230 Y87.192 E12.03816
G1 X8.547 Y86.260 E12.10638
G1 X8.874 Y85.455 E12.16661
G1 X35.212 Y28.986 E16.48415
G1 X35.470 Y28.499 E16.52233
G1 X35.958 Y27.677 E16.58861
G1 X36.414 Y27.001 E16.64508
G1 X36.874 Y26.387 E16.69820
G1 X37.261 Y25.914 E16.74054
G1 X37.931 Y25.178 E16.80954
G1 X38.313 Y24.799 E16.84683
G1 X38.875 Y24.282 E16.89973
G1 X39.546 Y23.728 E16.96002
G1 X40.016 Y23.376 E17.00073
G1 X40.617 Y22.963 E17.05127
G1 X41.280 Y22.555 E17.10522
G1 X42.021 Y22.149 E17.16372
G1 X42.517 Y21.905 E17.20203
G1 X43.216 Y21.598 E17.25493
G1 X43.995 Y21.300 E17.31276
G1 X44.809 Y21.040 E17.37198
G1 X45.451 Y20.868 E17.41801
G1 X46.292 Y20.687 E17.47762
G1 X46.832 Y20.596 E17.51553
G1 X47.582 Y20.501 E17.56797
G1 X48.279 Y20.445 E17.61640
G1 X48.817 Y20.424 E17.65369
G1 X49.665 Y20.427 E17.71246
G1 X50.200 Y20.454 E17.74956
G1 X51.021 Y20.529 E17.80667
G1 X51.672 Y20.620 E17.85222
G1 X52.337 Y20.742 E17.89907
G1 X53.320 Y20.978 E17.96913
G1 X53.893 Y21.148 E18.01054
G1 X54.436 Y21.330 E18.05027
G1 X55.112 Y21.589 E18.10037
G1 X55.764 Y21.873 E18.14971
G1 X134.995 Y58.813 E24.20713
G1 X135.058 Y58.826 E24.21156
G1 X211.911 Y58.827 E29.53686
G1 X212.870 Y58.863 E29.60335
G1 X213.700 Y58.943 E29.66113
G1 X214.661 Y59.091 E29.72853
G1 X215.317 Y59.229 E29.77497
G1 X216.093 Y59.429 E29.83050
G1 X216.830 Y59.660 E29.88404
G1 X217.825 Y60.036 E29.95770
G1 X218.526 Y60.349 E30.01094
G1 X219.364 Y60.779 E30.07622
G1 X220.168 Y61.255 E30.14092
G1 X221.071 Y61.872 E30.21669
G1 X221.896 Y62.522 E30.28952
G1 X222.622 Y63.176 E30.35719
G1 X223.308 Y63.875 E30.42506
G1 X223.994 Y64.672 E30.49796
G1 X224.670 Y65.576 E30.57613
G1 X225.282 Y66.532 E30.65480
G1 X225.736 Y67.358 E30.72010
G1 X226.189 Y68.327 E30.79423
G1 X226.603 Y69.401 E30.87395
G1 X226.929 Y70.474 E30.95166
G1 X227.159 Y71.469 E31.02246
G1 X227.313 Y72.407 E31.08829
G1 X227.427 Y73.604 E31.17165
G1 X227.452 Y74.460 E31.23098
G1 X227.452 Y198.992 E39.86004
G1 X227.420 Y199.921 E39.92447
G1 X227.363 Y200.583 E39.97052
G1 X227.229 Y201.556 E40.03857
G1 X227.032 Y202.523 E40.10691
G1 X226.829 Y203.294 E40.16216
G1 X226.610 Y203.984 E40.21234
G1 X226.331 Y204.737 E40.26795
G1 X225.940 Y205.634 E40.33576
G1 X225.371 Y206.721 E40.42081
G1 X224.838 Y207.582 E40.49102
G1 X224.297 Y208.346 E40.55585
G1 X223.539 Y209.275 E40.63889
G1 X222.866 Y209.992 E40.70703
G1 X222.147 Y210.667 E40.77542
G1 X221.267 Y211.388 E40.85423
G1 X220.398 Y212.003 E40.92799
G1 X219.456 Y212.576 E41.00439
G1 X218.497 Y213.072 E41.07922
G1 X217.672 Y213.434 E41.14163
G1 X216.726 Y213.782 E41.21151
G1 X215.721 Y214.080 E41.28415
G1 X214.609 Y214.325 E41.36301
G1 X213.456 Y214.492 E41.44374
G1 X212.395 Y214.568 E41.51746
G1 X158.546 Y214.580 E45.24879
G1 X156.501 Y214.076 E45.39470
G1 X154.491 Y213.036 E45.55155
G1 X153.418 Y212.538 E45.63348
G1 X152.691 Y212.230 E45.68819
G1 X151.961 Y211.941 E45.74258
G1 X150.854 Y211.542 E45.82414
G1 X150.095 Y211.295 E45.87946
G1 X148.968 Y210.968 E45.96074
G1 X147.815 Y210.680 E46.04306
G1 X147.056 Y210.515 E46.09691
G1 X146.274 Y210.365 E46.15212
G1 X145.104 Y210.181 E46.23419
G1 X143.936 Y210.040 E46.31570
G1 X143.149 Y209.971 E46.37039
G1 X141.972 Y209.904 E46.45210
G1 X141.180 Y209.884 E46.50700
G1 X140.000 Y209.892 E46.58877
G1 X138.823 Y209.944 E46.67043
G1 X137.648 Y210.040 E46.75213
G1 X136.864 Y210.129 E46.80678
G1 X136.083 Y210.238 E46.86141
G1 X134.925 Y210.436 E46.94280
G1 X134.143 Y210.595 E46.99808
G1 X132.995 Y210.867 E47.07988
G1 X131.853 Y211.183 E47.16199
G1 X130.729 Y211.541 E47.24370
G1 X129.621 Y211.940 E47.32530
G1 X128.891 Y212.229 E47.37969
G1 X128.164 Y212.538 E47.43448
G1 X127.090 Y213.036 E47.51647
G1 X125.076 Y214.077 E47.67358
G1 X123.034 Y214.580 E47.81929
G1 X107.546 Y214.580 E48.89250
G1 X105.501 Y214.076 E49.03840
G1 X103.490 Y213.035 E49.19528
G1 X102.417 Y212.538 E49.27723
G1 X101.691 Y212.230 E49.33190
G1 X100.960 Y211.940 E49.38640
G1 X99.854 Y211.542 E49.46786
G1 X99.095 Y211.295 E49.52314
G1 X97.967 Y210.968 E49.60451
G1 X96.435 Y210.594 E49.71378
G1 X95.276 Y210.366 E49.79564
G1 X94.497 Y210.238 E49.85038
G1 X93.717 Y210.129 E49.90490
G1 X92.547 Y210.004 E49.98648
G1 X91.758 Y209.944 E50.04130
G1 X90.565 Y209.892 E50.12406
G1 X89.401 Y209.884 E50.20471
G1 X88.608 Y209.904 E50.25962
G1 X87.434 Y209.971 E50.34117
G1 X86.249 Y210.083 E50.42359
G1 X85.085 Y210.238 E50.50498
G1 X84.304 Y210.366 E50.55981
G1 X83.143 Y210.595 E50.64179
G1 X81.996 Y210.867 E50.72347
G1 X80.853 Y211.183 E50.80570
G1 X79.729 Y211.541 E50.88742
G1 X78.621 Y211.940 E50.96902
G1 X77.891 Y212.229 E51.02339
G1 X77.163 Y212.538 E51.07820
G1 X76.090 Y213.036 E51.16019
G1 X74.069 Y214.079 E51.31779
G1 X72.031 Y214.580 E51.46320
G1 X64.573 Y214.579 E51.97998
G1 X63.629 Y214.544 E52.04542
G1 X63.014 Y214.489 E52.08819
G1 X62.354 Y214.403 E52.13432
G1 X61.651 Y214.281 E52.18374
G1 X60.547 Y214.019 E52.26241
G1 X59.448 Y213.673 E52.34219
G1 X58.748 Y213.404 E52.39418
G1 X58.012 Y213.078 E52.44999
G1 X57.099 Y212.611 E52.52100
G1 X56.459 Y212.234 E52.57249
G1 X55.520 Y211.606 E52.65076
G1 X54.677 Y210.950 E52.72478
G1 X53.840 Y210.200 E52.80262
G1 X53.273 Y209.623 E52.85872
G1 X52.505 Y208.740 E52.93978
G1 X51.947 Y208.004 E53.00379
G1 X51.399 Y207.181 E53.07234
G1 X50.899 Y206.315 E53.14158
G1 X50.403 Y205.305 E53.21955
G1 X50.034 Y204.405 E53.28696
G1 X49.810 Y203.766 E53.33388
