; generated by Slic3r 1.3.0 on 2019-03-17 at 22:43:35

; external perimeters extrusion width = 0.44mm (0.84mm^3/s)
; perimeters extrusion width = 0.56mm (2.15mm^3/s)
; infill extrusion width = 0.50mm (3.83mm^3/s)
; solid infill extrusion width = 0.56mm (1.08mm^3/s)
; top infill extrusion width = 0.56mm (0.81mm^3/s)

M107
M104 S230 ; Set Extruder temperature
M140 S100  ; Set Heat Bed temperature
M190 S100  ; Wait for Heat Bed temperature
M109 S230 ; Wait for Extruder temperature
G28 ; Home all axes
G92 E0 ; Reset Extruder
G1 Z5.0 F3000 ; Move Z Axis up little to prevent scratching of Heat Bed
G1 X0.1 Y20 Z0.3 F5000.0 ; Move to start position
G1 X0.1 Y200.0 Z0.3 F1500.0 E15 ; Draw the first line
G1 X0.4 Y200.0 Z0.3 F5000.0 ; Move to side a little
G1 X0.4 Y20 Z0.3 F1500.0 E30 ; Draw the second line
G92 E0 ; Reset Extruder
G1 Z5.0 F3000 ; Move Z Axis up little to prevent scratching of Heat Bed
; Filament gcode

G21 ; set units to millimeters
G90 ; use absolute coordinates
M82 ; use absolute distances for extrusion
G92 E0
G1 E-8.00000 F2400.00000
G92 E0
G1 Z1.000 F7800.000
G1 X17.903 Y57.775 F7800.000
G1 Z0.300 F7800.000
G1 E8.00000 F2400.00000
G1 F2700
G1 X18.591 Y57.572 E8.04789
G1 X19.230 Y57.410 E8.09196
G1 X181.773 Y19.021 E19.24943
G1 X182.523 Y18.860 E19.30070
G1 X183.490 Y18.703 E19.36616
G1 X184.596 Y18.590 E19.44037
G1 X185.532 Y18.549 E19.50297
G1 X186.611 Y18.564 E19.57511
G1 X187.543 Y18.631 E19.63748
G1 X188.650 Y18.775 E19.71211
G1 X189.736 Y18.988 E19.78603
G1 X190.792 Y19.264 E19.85896
G1 X191.719 Y19.567 E19.92411
G1 X192.669 Y19.937 E19.99221
G1 X193.609 Y20.368 E20.06129
G1 X194.603 Y20.901 E20.13662
G1 X195.628 Y21.542 E20.21736
G1 X196.378 Y22.076 E20.27889
G1 X197.173 Y22.712 E20.34690
G1 X197.811 Y23.282 E20.40408
G1 X198.477 Y23.940 E20.46661
G1 X198.924 Y24.423 E20.51055
G1 X199.447 Y25.038 E20.56448
G1 X199.966 Y25.711 E20.62131
G1 X200.484 Y26.457 E20.68193
G1 X200.832 Y27.009 E20.72552
G1 X201.289 Y27.812 E20.78728
G1 X201.578 Y28.377 E20.82967
G1 X227.805 Y84.619 E24.97539
G1 X228.232 Y85.669 E25.05109
G1 X228.589 Y86.733 E25.12610
G1 X228.886 Y87.860 E25.20394
G1 X229.063 Y88.744 E25.26419
G1 X229.193 Y89.612 E25.32281
G1 X229.301 Y90.824 E25.40411
G1 X229.325 Y91.884 E25.47495
G1 X229.278 Y93.042 E25.55235
G1 X229.221 Y93.671 E25.59454
G1 X229.113 Y94.490 E25.64974
G1 X228.887 Y95.660 E25.72931
G1 X228.588 Y96.795 E25.80777
G1 X228.162 Y98.043 E25.89587
G1 X186.669 Y205.199 E33.57237
G1 X186.352 Y205.970 E33.62811
G1 X186.067 Y206.583 E33.67327
G1 X185.639 Y207.408 E33.73534
G1 X185.245 Y208.084 E33.78758
G1 X184.722 Y208.888 E33.85167
G1 X184.179 Y209.631 E33.91314
G1 X183.658 Y210.274 E33.96846
G1 X183.113 Y210.885 E34.02315
G1 X182.391 Y211.615 E34.09170
G1 X181.725 Y212.218 E34.15177
G1 X181.116 Y212.718 E34.20439
G1 X180.356 Y213.281 E34.26756
G1 X179.613 Y213.773 E34.32711
G1 X178.718 Y214.299 E34.39646
G1 X177.953 Y214.694 E34.45397
G1 X177.218 Y215.030 E34.50795
G1 X176.450 Y215.338 E34.56328
G1 X175.630 Y215.622 E34.62122
G1 X174.724 Y215.886 E34.68423
G1 X173.981 Y216.062 E34.73525
G1 X173.023 Y216.241 E34.80039
G1 X172.088 Y216.362 E34.86335
G1 X171.122 Y216.434 E34.92808
G1 X170.297 Y216.454 E34.98324
G1 X22.705 Y216.446 E44.84317
G1 X21.904 Y216.405 E44.89673
G1 X21.233 Y216.342 E44.94174
G1 X20.348 Y216.218 E45.00146
G1 X19.688 Y216.096 E45.04629
G1 X19.071 Y215.959 E45.08852
G1 X18.196 Y215.722 E45.14910
G1 X17.469 Y215.488 E45.20014
G1 X16.723 Y215.210 E45.25333
G1 X15.910 Y214.862 E45.31239
G1 X15.238 Y214.537 E45.36226
G1 X14.492 Y214.133 E45.41891
G1 X13.793 Y213.711 E45.47345
G1 X13.138 Y213.273 E45.52612
G1 X12.392 Y212.719 E45.58820
G1 X11.888 Y212.309 E45.63156
G1 X11.300 Y211.789 E45.68399
G1 X10.550 Y211.051 E45.75430
G1 X9.998 Y210.448 E45.80895
G1 X9.499 Y209.850 E45.86095
G1 X8.954 Y209.130 E45.92130
G1 X8.467 Y208.413 E45.97915
G1 X7.944 Y207.548 E46.04673
G1 X7.601 Y206.909 E46.09514
G1 X7.252 Y206.188 E46.14868
G1 X6.954 Y205.495 E46.19904
G1 X6.645 Y204.671 E46.25786
G1 X6.343 Y203.714 E46.32492
G1 X6.125 Y202.870 E46.38314
G1 X5.942 Y201.969 E46.44453
G1 X5.814 Y201.128 E46.50138
G1 X5.736 Y200.392 E46.55081
G1 X5.685 Y199.529 E46.60856
G1 X5.686 Y73.844 E55.00505
G1 X5.728 Y73.111 E55.05408
G1 X5.798 Y72.405 E55.10149
G1 X5.983 Y71.215 E55.18190
G1 X6.118 Y70.570 E55.22597
G1 X6.323 Y69.764 E55.28151
G1 X6.697 Y68.585 E55.36414
G1 X7.179 Y67.380 E55.45082
G1 X7.520 Y66.656 E55.50429
G1 X7.828 Y66.069 E55.54858
G1 X8.248 Y65.343 E55.60462
G1 X8.581 Y64.819 E55.64611
G1 X9.322 Y63.782 E55.73124
G1 X10.136 Y62.802 E55.81638
G1 X11.022 Y61.880 E55.90180
G1 X11.677 Y61.279 E55.96113
G1 X12.108 Y60.915 E55.99884
G1 X13.130 Y60.139 E56.08458
G1 X14.163 Y59.467 E56.16688
G1 X14.965 Y59.012 E56.22848
G1 X15.458 Y58.759 E56.26552
G1 X16.091 Y58.463 E56.31222
G1 X16.691 Y58.210 E56.35571
G1 X17.846 Y57.794 E56.43773
G1 F6240
G1 X18.150 Y57.699 E56.32162
G1 F6240
G1 X18.153 Y57.698 E56.32024
G1 F6240
G1 X18.155 Y57.697 E56.31938
G1 F6240
G1 X18.320 Y57.648 E56.25673
G1 F6240
G1 X18.591 Y57.572 E56.15386
G1 F6240
G1 X18.594 Y57.571 E56.15250
G1 F6240
G1 X18.597 Y57.570 E56.15136
G1 F6240
G1 X18.762 Y57.526 E56.08918
G1 F6240
G1 X19.006 Y57.464 E55.99700
G1 F6240
G1 X19.010 Y57.463 E55.99563
G1 F6240
G1 X19.014 Y57.462 E55.99399
G1 F6240
G1 X19.181 Y57.422 E55.93150
G1 F6240
G1 X19.230 Y57.410 E55.91284
G1 F6240
G1 X38.075 Y52.959 E48.83773
G1 E48.43773 F2400.00000
G92 E0
G1 Z1.300 F7800.000
G1 X185.958 Y121.189 F7800.000
G1 Z0.300 F7800.000
G1 E8.00000 F2400.00000
G1 F2700
G1 X185.958 Y198.943 E13.38773
G1 X185.933 Y199.798 E13.44697
G1 X185.893 Y200.350 E13.48532
G1 X185.796 Y201.162 E13.54202
G1 X185.601 Y202.250 E13.61860
G1 X185.387 Y203.109 E13.67995
G1 X185.189 Y203.769 E13.72765
G1 X184.968 Y204.400 E13.77401
G1 X184.600 Y205.300 E13.84137
G1 X184.100 Y206.317 E13.91993
G1 X183.599 Y207.184 E13.98928
G1 X183.045 Y208.016 E14.05852
G1 X182.494 Y208.741 E14.12167
G1 X181.723 Y209.627 E14.20307
G1 X181.160 Y210.200 E14.25870
G1 X180.316 Y210.956 E14.33721
G1 X179.484 Y211.603 E14.41023
G1 X178.538 Y212.236 E14.48911
G1 X177.901 Y212.611 E14.54032
G1 X176.945 Y213.099 E14.61470
G1 X176.249 Y213.405 E14.66740
G1 X175.543 Y213.676 E14.71980
G1 X174.453 Y214.019 E14.79895
G1 X173.353 Y214.280 E14.87728
G1 X172.662 Y214.401 E14.92591
G1 X171.974 Y214.490 E14.97401
G1 X171.379 Y214.543 E15.01537
G1 X170.421 Y214.579 E15.08184
G1 X162.969 Y214.580 E15.59818
G1 X160.930 Y214.078 E15.74364
G1 X158.909 Y213.035 E15.90123
G1 X157.836 Y212.538 E15.98320
G1 X157.108 Y212.229 E16.03798
G1 X156.379 Y211.940 E16.09236
G1 X155.271 Y211.541 E16.17394
G1 X154.147 Y211.183 E16.25566
G1 X153.005 Y210.868 E16.33775
G1 X151.856 Y210.595 E16.41959
G1 X151.075 Y210.436 E16.47481
G1 X149.918 Y210.238 E16.55618
G1 X149.136 Y210.129 E16.61085
G1 X148.352 Y210.040 E16.66555
G1 X147.177 Y209.944 E16.74725
G1 X146.016 Y209.893 E16.82775
G1 X144.820 Y209.884 E16.91066
G1 X144.027 Y209.904 E16.96558
G1 X142.853 Y209.971 E17.04712
G1 X142.065 Y210.040 E17.10193
G1 X140.895 Y210.181 E17.18357
G1 X139.725 Y210.365 E17.26560
G1 X138.944 Y210.515 E17.32072
G1 X138.184 Y210.680 E17.37464
G1 X137.033 Y210.968 E17.45685
G1 X135.904 Y211.295 E17.53825
G1 X135.148 Y211.541 E17.59337
G1 X134.040 Y211.940 E17.67497
G1 X133.309 Y212.230 E17.72947
G1 X132.583 Y212.538 E17.78415
G1 X131.509 Y213.036 E17.86613
G1 X129.495 Y214.077 E18.02325
G1 X127.453 Y214.580 E18.16896
G1 X22.591 Y214.568 E25.43502
G1 X21.538 Y214.491 E25.50819
G1 X20.398 Y214.326 E25.58804
G1 X19.420 Y214.116 E25.65732
G1 X18.404 Y213.824 E25.73055
G1 X17.330 Y213.435 E25.80974
G1 X16.501 Y213.071 E25.87250
G1 X15.542 Y212.575 E25.94726
G1 X14.611 Y212.009 E26.02278
G1 X13.734 Y211.389 E26.09723
G1 X12.853 Y210.667 E26.17614
G1 X12.129 Y209.988 E26.24490
G1 X11.465 Y209.279 E26.31221
G1 X10.704 Y208.348 E26.39552
G1 X10.167 Y207.589 E26.45999
G1 X9.630 Y206.723 E26.53054
G1 X9.057 Y205.628 E26.61621
G1 X8.667 Y204.733 E26.68386
G1 X8.391 Y203.988 E26.73892
G1 X8.173 Y203.299 E26.78896
G1 X7.968 Y202.525 E26.84445
G1 X7.772 Y201.560 E26.91270
G1 X7.683 Y200.974 E26.95374
G1 X7.585 Y200.000 E27.02161
G1 X7.549 Y199.020 E27.08955
G1 X7.548 Y74.463 E35.72034
G1 X7.573 Y73.603 E35.77996
G1 X7.687 Y72.401 E35.86363
G1 X7.841 Y71.471 E35.92897
G1 X8.070 Y70.476 E35.99970
G1 X8.396 Y69.404 E36.07733
G1 X8.811 Y68.326 E36.15735
G1 X9.266 Y67.356 E36.23160
G1 X9.798 Y66.400 E36.30741
G1 X10.330 Y65.576 E36.37537
G1 X11.004 Y64.674 E36.45343
G1 X11.691 Y63.876 E36.52639
G1 X12.383 Y63.170 E36.59487
G1 X13.098 Y62.527 E36.66146
G1 X13.925 Y61.875 E36.73450
G1 X14.834 Y61.254 E36.81073
G1 X15.633 Y60.781 E36.87512
G1 X16.476 Y60.348 E36.94076
G1 X17.180 Y60.034 E36.99415
G1 X18.172 Y59.659 E37.06763
G1 X18.908 Y59.429 E37.12108
G1 X19.682 Y59.229 E37.17650
G1 X20.336 Y59.092 E37.22281
G1 X21.301 Y58.943 E37.29044
G1 X22.132 Y58.863 E37.34826
G1 X23.088 Y58.827 E37.41457
G1 X99.942 Y58.826 E42.73996
G1 X100.005 Y58.813 E42.74439
G1 X179.237 Y21.873 E48.80193
G1 X179.889 Y21.588 E48.85122
G1 X180.562 Y21.331 E48.90116
G1 X181.104 Y21.149 E48.94077
G1 X181.682 Y20.978 E48.98251
G1 X182.663 Y20.742 E49.05244
G1 X183.330 Y20.620 E49.09941
G1 X183.977 Y20.529 E49.14471
G1 X184.799 Y20.454 E49.20185
G1 X185.334 Y20.427 E49.23899
G1 X186.183 Y20.424 E49.29783
G1 X186.723 Y20.445 E49.33525
G1 X187.416 Y20.501 E49.38342
G1 X188.169 Y20.596 E49.43606
G1 X188.708 Y20.687 E49.47389
G1 X189.547 Y20.868 E49.53338
G1 X190.195 Y21.041 E49.57985
G1 X191.005 Y21.301 E49.63883
G1 X191.783 Y21.597 E49.69648
G1 X192.481 Y21.905 E49.74937
G1 X192.982 Y22.150 E49.78802
G1 X193.719 Y22.554 E49.84621
G1 X194.382 Y22.963 E49.90020
G1 X194.983 Y23.376 E49.95075
G1 X195.453 Y23.727 E49.99137
G1 X196.126 Y24.284 E50.05192
G1 X196.768 Y24.877 E50.11250
G1 X197.351 Y25.476 E50.17038
G1 X197.837 Y26.030 E50.22146
G1 X198.259 Y26.558 E50.26832
G1 X198.584 Y26.998 E50.30622
G1 X199.104 Y27.775 E50.37101
G1 X199.534 Y28.505 E50.42968
G1 X199.788 Y28.986 E50.46739
G1 X226.131 Y85.466 E54.78572
G1 X226.452 Y86.258 E54.84496
G1 X226.770 Y87.192 E54.91336
G1 X227.036 Y88.172 E54.98371
G1 X227.227 Y89.119 E55.05061
G1 X227.361 Y90.075 E55.11754
G1 X227.429 Y90.922 E55.17642
G1 X227.452 Y91.810 E55.23793
G1 X227.426 Y92.667 E55.29739
G1 X227.369 Y93.380 E55.34692
G1 X227.222 Y94.444 E55.42134
G1 X227.037 Y95.350 E55.48545
G1 X226.773 Y96.327 E55.55556
G1 X226.470 Y97.221 E55.62095
G1 X226.167 Y97.976 E55.67731
G1 X225.866 Y98.633 E55.72740
G1 X225.418 Y99.482 E55.79392
G1 X224.992 Y100.189 E55.85111
G1 X224.537 Y100.864 E55.90750
G1 X223.948 Y101.637 E55.97485
G1 X223.467 Y102.200 E56.02618
G1 X222.973 Y102.729 E56.07632
G1 X222.234 Y103.434 E56.14708
G1 X221.542 Y104.018 E56.20985
G1 X220.697 Y104.646 E56.28282
G1 X220.207 Y104.971 E56.32351
G1 X219.514 Y105.388 E56.37957
G1 X218.470 Y105.928 E56.46104
G1 X186.049 Y121.046 E58.93975
G1 X185.990 Y121.139 E58.94737
G1 X185.403 Y120.835 F7800.000
G1 F2700
G1 X185.403 Y198.942 E64.35951
G1 X185.378 Y199.769 E64.41690
G1 X185.340 Y200.297 E64.45356
G1 X185.247 Y201.080 E64.50817
G1 X185.058 Y202.131 E64.58218
G1 X184.853 Y202.957 E64.64114
G1 X184.661 Y203.595 E64.68733
G1 X184.447 Y204.207 E64.73227
G1 X184.092 Y205.075 E64.79725
G1 X183.609 Y206.057 E64.87309
G1 X183.126 Y206.893 E64.93994
G1 X182.763 Y207.449 E64.98598
G1 X182.126 Y208.313 E65.06038
G1 X181.552 Y208.993 E65.12200
G1 X180.870 Y209.707 E65.19042
G1 X180.072 Y210.435 E65.26525
G1 X179.391 Y210.979 E65.32568
G1 X178.589 Y211.544 E65.39366
G1 X177.766 Y212.049 E65.46056
G1 X176.955 Y212.478 E65.52412
G1 X176.311 Y212.776 E65.57331
G1 X175.659 Y213.040 E65.62203
G1 X175.195 Y213.209 E65.65624
G1 X174.303 Y213.484 E65.72095
G1 X173.246 Y213.735 E65.79620
G1 X172.577 Y213.852 E65.84326
G1 X171.916 Y213.937 E65.88944
G1 X171.343 Y213.989 E65.92931
G1 X170.413 Y214.024 E65.99384
G1 X163.036 Y214.024 E66.50497
G1 X161.128 Y213.555 E66.64110
G1 X159.152 Y212.536 E66.79519
G1 X158.060 Y212.030 E66.87860
G1 X157.320 Y211.715 E66.93433
G1 X156.577 Y211.421 E66.98970
G1 X155.449 Y211.015 E67.07274
G1 X154.305 Y210.651 E67.15592
G1 X153.144 Y210.329 E67.23944
G1 X151.974 Y210.052 E67.32274
G1 X151.180 Y209.891 E67.37889
G1 X150.001 Y209.689 E67.46173
G1 X149.206 Y209.578 E67.51737
G1 X148.408 Y209.487 E67.57303
G1 X147.212 Y209.390 E67.65619
G1 X146.029 Y209.337 E67.73824
G1 X144.813 Y209.329 E67.82252
G1 X144.006 Y209.349 E67.87839
G1 X142.811 Y209.417 E67.96140
G1 X142.009 Y209.488 E68.01717
G1 X140.818 Y209.631 E68.10026
G1 X139.628 Y209.818 E68.18373
G1 X138.834 Y209.971 E68.23979
G1 X138.059 Y210.138 E68.29472
G1 X136.890 Y210.431 E68.37824
G1 X135.739 Y210.765 E68.46124
G1 X134.968 Y211.015 E68.51741
G1 X133.842 Y211.421 E68.60035
G1 X133.098 Y211.716 E68.65584
G1 X132.359 Y212.030 E68.71147
G1 X131.266 Y212.536 E68.79490
G1 X129.296 Y213.554 E68.94854
G1 X127.385 Y214.024 E69.08490
G1 X22.614 Y214.013 E76.34471
G1 X21.600 Y213.939 E76.41515
G1 X20.499 Y213.780 E76.49222
G1 X19.552 Y213.576 E76.55940
G1 X18.574 Y213.295 E76.62990
G1 X17.536 Y212.919 E76.70634
G1 X16.740 Y212.569 E76.76664
G1 X15.813 Y212.089 E76.83895
G1 X14.917 Y211.546 E76.91158
G1 X14.068 Y210.945 E76.98361
G1 X13.218 Y210.248 E77.05980
G1 X12.525 Y209.597 E77.12571
G1 X11.883 Y208.914 E77.19066
G1 X11.146 Y208.012 E77.27136
G1 X10.630 Y207.283 E77.33326
G1 X10.113 Y206.449 E77.40124
G1 X9.559 Y205.389 E77.48414
G1 X9.182 Y204.525 E77.54942
G1 X8.916 Y203.807 E77.60251
G1 X8.707 Y203.146 E77.65051
G1 X8.510 Y202.400 E77.70400
G1 X8.319 Y201.463 E77.77022
G1 X8.189 Y200.521 E77.83618
G1 X8.121 Y199.635 E77.89772
G1 X8.104 Y198.986 E77.94271
G1 X8.103 Y74.465 E86.57103
G1 X8.128 Y73.632 E86.62877
G1 X8.238 Y72.473 E86.70939
G1 X8.387 Y71.575 E86.77248
G1 X8.607 Y70.617 E86.84062
G1 X8.922 Y69.582 E86.91560
G1 X9.323 Y68.542 E86.99281
G1 X9.760 Y67.608 E87.06424
G1 X10.272 Y66.689 E87.13713
G1 X10.788 Y65.890 E87.20305
G1 X11.436 Y65.023 E87.27804
G1 X12.101 Y64.251 E87.34865
G1 X12.768 Y63.571 E87.41468
G1 X13.458 Y62.951 E87.47894
G1 X14.254 Y62.322 E87.54922
G1 X15.132 Y61.723 E87.62290
G1 X15.905 Y61.266 E87.68509
G1 X16.713 Y60.850 E87.74807
G1 X17.392 Y60.547 E87.79959
G1 X18.352 Y60.185 E87.87068
G1 X19.062 Y59.962 E87.92226
G1 X19.809 Y59.770 E87.97567
G1 X20.437 Y59.638 E88.02018
G1 X21.368 Y59.495 E88.08541
G1 X22.167 Y59.418 E88.14107
G1 X23.096 Y59.383 E88.20546
G1 X100.065 Y59.382 E93.53884
G1 X100.128 Y59.368 E93.54327
G1 X179.470 Y22.377 E99.60919
G1 X180.101 Y22.102 E99.65689
G1 X180.747 Y21.855 E99.70480
G1 X181.270 Y21.679 E99.74304
G1 X181.827 Y21.514 E99.78327
G1 X182.778 Y21.286 E99.85107
G1 X183.419 Y21.168 E99.89620
G1 X184.041 Y21.081 E99.93977
G1 X184.838 Y21.008 E99.99519
G1 X185.350 Y20.983 E100.03073
G1 X186.173 Y20.980 E100.08776
G1 X186.689 Y21.000 E100.12356
G1 X187.360 Y21.054 E100.17020
G1 X188.088 Y21.146 E100.22102
G1 X188.603 Y21.233 E100.25721
G1 X189.416 Y21.408 E100.31484
G1 X190.039 Y21.575 E100.35950
G1 X190.819 Y21.824 E100.41626
G1 X191.573 Y22.112 E100.47217
G1 X192.247 Y22.408 E100.52323
G1 X192.726 Y22.643 E100.56018
G1 X193.440 Y23.035 E100.61660
G1 X194.080 Y23.429 E100.66869
G1 X194.657 Y23.825 E100.71716
G1 X195.109 Y24.164 E100.75636
G1 X195.762 Y24.703 E100.81498
G1 X196.379 Y25.273 E100.87323
G1 X196.944 Y25.854 E100.92936
G1 X197.410 Y26.385 E100.97834
G1 X197.819 Y26.897 E101.02374
G1 X198.130 Y27.318 E101.06000
G1 X198.632 Y28.069 E101.12258
G1 X199.049 Y28.776 E101.17945
G1 X199.292 Y29.236 E101.21552
G1 X225.622 Y85.690 E105.53188
G1 X225.932 Y86.452 E105.58886
G1 X226.239 Y87.353 E105.65482
G1 X226.494 Y88.297 E105.72260
G1 X226.680 Y89.216 E105.78753
G1 X226.809 Y90.133 E105.85172
G1 X226.877 Y90.992 E105.91145
G1 X226.897 Y91.807 E105.96788
G1 X226.871 Y92.637 E106.02547
G1 X226.816 Y93.321 E106.07298
G1 X226.674 Y94.350 E106.14495
G1 X226.495 Y95.225 E106.20689
G1 X226.241 Y96.167 E106.27444
G1 X225.948 Y97.030 E106.33758
G1 X225.657 Y97.757 E106.39187
G1 X225.367 Y98.387 E106.43992
G1 X224.936 Y99.207 E106.50410
